; generated by Slic3r 1.2.9 on 2017-02-04 at 16:24:23

; external perimeters extrusion width = 0.40mm
; perimeters extrusion width = 0.48mm
; infill extrusion width = 0.48mm
; solid infill extrusion width = 0.48mm
; top infill extrusion width = 0.48mm
; support material extrusion width = 0.40mm

M107
M190 S60 ; set bed temperature
M104 S200 ; set temperature
G28
G90
G1 Z5 F210
G32 S1
M109 S200 ; wait for temperature to be reached
G21 ; set units to millimeters
G90 ; use absolute coordinates
M83 ; use relative distances for extrusion
G1 E-1.00000 F1800.00000
G1 Z0.300 F4200.000
G1 X66.282 Y15.681 F4200.000
G1 E1.00000 F1800.00000
G1 X66.911 Y13.022 E0.18251 F1080.000
G1 X67.479 Y11.890 E0.08462
G1 X68.916 Y9.909 E0.16348
G1 X70.912 Y8.493 E0.16348
G1 X74.216 Y7.731 E0.22650
G1 X150.904 Y7.731 E5.12321
G1 X153.319 Y8.128 E0.16348 F1080.000
G1 X155.479 Y9.278 E0.16348
G1 X157.156 Y11.060 E0.16348
G1 X157.913 Y12.500 E0.10867
G1 X158.441 Y13.837 E0.09606
G1 X158.968 Y16.604 E0.18815
G1 X158.968 Y28.558 E0.79858
G1 X158.882 Y29.688 E0.07575
G1 X157.490 Y38.861 E0.61978
G1 X156.735 Y41.188 E0.16348
G1 X155.274 Y43.151 E0.16348
G1 X153.261 Y44.543 E0.16348
G1 X150.040 Y45.266 E0.22052
G1 X75.040 Y45.266 E5.01041
G1 X72.625 Y44.868 E0.16348
G1 X70.465 Y43.718 E0.16348
G1 X68.436 Y41.359 E0.20793
G1 X67.756 Y40.122 E0.09424
G1 X66.835 Y36.877 E0.22539
G1 X66.720 Y34.615 E0.15127
G1 X66.118 Y19.081 E1.03852
G1 X66.112 Y16.399 E0.17922
G1 X66.268 Y15.739 E0.04528
G1 E-1.00000 F1800.00000
G1 X148.079 Y18.566 F4200.000
G1 E1.00000 F1800.00000
G1 X149.204 Y18.566 E0.07516 F540.000
G1 X149.204 Y36.894 E1.22446
G1 X75.876 Y36.894 E4.89876
G1 X75.876 Y17.566 E1.29127
G1 X148.079 Y17.566 E4.82360
G1 X148.079 Y18.506 E0.06280
G1 X148.615 Y18.030 F4200.000
G1 X149.740 Y18.030 E0.07516 F540.000
G1 X149.740 Y37.430 E1.29602
G1 X75.340 Y37.430 E4.97032
G1 X75.340 Y17.030 E1.36283
G1 X148.615 Y17.030 E4.89517
G1 X148.615 Y17.970 E0.06280
G1 X148.615 Y18.430 F4200.000
G1 X147.758 Y18.791 F4200.000
G1 X146.854 Y17.887 E0.08580 F1080.000
G1 E-1.00000 F1800.00000
G1 X148.883 Y19.154 F4200.000
G1 E1.00000 F1800.00000
G4 P15
G1 X148.615 Y18.887 E0.02538 F1080.000
G1 X147.854 Y18.887 E0.05112
G1 X148.883 Y19.916 E0.09767
G1 X148.883 Y20.677 E0.05112
G1 X146.093 Y17.887 E0.26492
G1 X145.332 Y17.887 E0.05112
G1 X148.883 Y21.438 E0.33721
G1 X148.883 Y22.200 E0.05112
G1 X144.570 Y17.887 E0.40951
G1 X143.809 Y17.887 E0.05112
G1 X148.883 Y22.961 E0.48180
G1 X148.883 Y23.722 E0.05112
G1 X143.048 Y17.887 E0.55409
G1 X142.286 Y17.887 E0.05112
G1 X148.883 Y24.484 E0.62639
G1 X148.883 Y25.245 E0.05112
G1 X141.525 Y17.887 E0.69868
G1 X140.764 Y17.887 E0.05112
G1 X148.883 Y26.006 E0.77097
G1 X148.883 Y26.768 E0.05112
G1 X140.002 Y17.887 E0.84327
G1 X139.241 Y17.887 E0.05112
G1 X148.883 Y27.529 E0.91556
G1 X148.883 Y28.290 E0.05112
G1 X138.480 Y17.887 E0.98785
G1 X137.718 Y17.887 E0.05112
G1 X148.883 Y29.052 E1.06015
G1 X148.883 Y29.813 E0.05112
G1 X136.957 Y17.887 E1.13244
G1 X136.196 Y17.887 E0.05112
G1 X148.883 Y30.574 E1.20473
G1 X148.883 Y31.336 E0.05112
G1 X135.434 Y17.887 E1.27702
G1 X134.673 Y17.887 E0.05112
G1 X148.883 Y32.097 E1.34932
G1 X148.883 Y32.858 E0.05112
G1 X133.912 Y17.887 E1.42161
G1 X133.150 Y17.887 E0.05112
G1 X148.883 Y33.620 E1.49390
G1 X148.883 Y34.381 E0.05112
G1 X132.389 Y17.887 E1.56620
G1 X131.628 Y17.887 E0.05112
G1 X148.883 Y35.142 E1.63849
G1 X148.883 Y35.904 E0.05112
G1 X130.866 Y17.887 E1.71078
G1 X130.105 Y17.887 E0.05112
G1 X148.790 Y36.573 E1.77432
G1 X148.029 Y36.573 E0.05112
G1 X129.344 Y17.887 E1.77432
G1 X128.582 Y17.887 E0.05112
G1 X147.268 Y36.573 E1.77432
G1 X146.506 Y36.573 E0.05112
G1 X127.821 Y17.887 E1.77432
G1 X127.060 Y17.887 E0.05112
G1 X145.745 Y36.573 E1.77432
G1 X144.984 Y36.573 E0.05112
G1 X126.298 Y17.887 E1.77432
G1 X125.537 Y17.887 E0.05112
G1 X144.223 Y36.573 E1.77432
G1 X143.461 Y36.573 E0.05112
G1 X124.776 Y17.887 E1.77432
G1 X124.014 Y17.887 E0.05112
G1 X142.700 Y36.573 E1.77432
G1 X141.939 Y36.573 E0.05112
G1 X123.253 Y17.887 E1.77432
G1 X122.492 Y17.887 E0.05112
G1 X141.177 Y36.573 E1.77432
G1 X140.416 Y36.573 E0.05112
G1 X121.730 Y17.887 E1.77432
G1 X120.969 Y17.887 E0.05112
G1 X139.655 Y36.573 E1.77432
G1 X138.893 Y36.573 E0.05112
G1 X120.208 Y17.887 E1.77432
G1 X119.446 Y17.887 E0.05112
G1 X138.132 Y36.573 E1.77432
G1 X137.371 Y36.573 E0.05112
G1 X118.685 Y17.887 E1.77432
G1 X117.924 Y17.887 E0.05112
G1 X136.609 Y36.573 E1.77432
G1 X135.848 Y36.573 E0.05112
G1 X117.162 Y17.887 E1.77432
G1 X116.401 Y17.887 E0.05112
G1 X135.087 Y36.573 E1.77432
G1 X134.325 Y36.573 E0.05112
G1 X115.640 Y17.887 E1.77432
G1 X114.878 Y17.887 E0.05112
G1 X133.564 Y36.573 E1.77432
G1 X132.803 Y36.573 E0.05112
G1 X114.117 Y17.887 E1.77432
G1 X113.356 Y17.887 E0.05112
G1 X132.041 Y36.573 E1.77432
G1 X131.280 Y36.573 E0.05112
G1 X112.594 Y17.887 E1.77432
G1 X111.833 Y17.887 E0.05112
G1 X130.519 Y36.573 E1.77432
G1 X129.757 Y36.573 E0.05112
G1 X111.072 Y17.887 E1.77432
G1 X110.310 Y17.887 E0.05112
G1 X128.996 Y36.573 E1.77432
G1 X128.235 Y36.573 E0.05112
G1 X109.549 Y17.887 E1.77432
G1 X108.788 Y17.887 E0.05112
G1 X127.473 Y36.573 E1.77432
G1 X126.712 Y36.573 E0.05112
G1 X108.027 Y17.887 E1.77432
G1 X107.265 Y17.887 E0.05112
G1 X125.951 Y36.573 E1.77432
G1 X125.189 Y36.573 E0.05112
G1 X106.504 Y17.887 E1.77432
G1 X105.743 Y17.887 E0.05112
G1 X124.428 Y36.573 E1.77432
G1 X123.667 Y36.573 E0.05112
G1 X104.981 Y17.887 E1.77432
G1 X104.220 Y17.887 E0.05112
G1 X122.905 Y36.573 E1.77432
G1 X122.144 Y36.573 E0.05112
G1 X103.459 Y17.887 E1.77432
G1 X102.697 Y17.887 E0.05112
G1 X121.383 Y36.573 E1.77432
G1 X120.621 Y36.573 E0.05112
G1 X101.936 Y17.887 E1.77432
G1 X101.175 Y17.887 E0.05112
G1 X119.860 Y36.573 E1.77432
G1 X119.099 Y36.573 E0.05112
G1 X100.413 Y17.887 E1.77432
G1 X99.652 Y17.887 E0.05112
G1 X118.337 Y36.573 E1.77432
G1 X117.576 Y36.573 E0.05112
G1 X98.891 Y17.887 E1.77432
G1 X98.129 Y17.887 E0.05112
G1 X116.815 Y36.573 E1.77432
G1 X116.053 Y36.573 E0.05112
G1 X97.368 Y17.887 E1.77432
G1 X96.607 Y17.887 E0.05112
G1 X115.292 Y36.573 E1.77432
G1 X114.531 Y36.573 E0.05112
G1 X95.845 Y17.887 E1.77432
G1 X95.084 Y17.887 E0.05112
G1 X113.769 Y36.573 E1.77432
G1 X113.008 Y36.573 E0.05112
G1 X94.323 Y17.887 E1.77432
G1 X93.561 Y17.887 E0.05112
G1 X112.247 Y36.573 E1.77432
G1 X111.485 Y36.573 E0.05112
G1 X92.800 Y17.887 E1.77432
G1 X92.039 Y17.887 E0.05112
G1 X110.724 Y36.573 E1.77432
G1 X109.963 Y36.573 E0.05112
G1 X91.277 Y17.887 E1.77432
G1 X90.516 Y17.887 E0.05112
G1 X109.201 Y36.573 E1.77432
G1 X108.440 Y36.573 E0.05112
G1 X89.755 Y17.887 E1.77432
G1 X88.993 Y17.887 E0.05112
G1 X107.679 Y36.573 E1.77432
G1 X106.917 Y36.573 E0.05112
G1 X88.232 Y17.887 E1.77432
G1 X87.471 Y17.887 E0.05112
G1 X106.156 Y36.573 E1.77432
G1 X105.395 Y36.573 E0.05112
G1 X86.709 Y17.887 E1.77432
G1 X85.948 Y17.887 E0.05112
G1 X104.634 Y36.573 E1.77432
G1 X103.872 Y36.573 E0.05112
G1 X85.187 Y17.887 E1.77432
G1 X84.425 Y17.887 E0.05112
G1 X103.111 Y36.573 E1.77432
G1 X102.350 Y36.573 E0.05112
G1 X83.664 Y17.887 E1.77432
G1 X82.903 Y17.887 E0.05112
G1 X101.588 Y36.573 E1.77432
G1 X100.827 Y36.573 E0.05112
G1 X82.141 Y17.887 E1.77432
G1 X81.380 Y17.887 E0.05112
G1 X100.066 Y36.573 E1.77432
G1 X99.304 Y36.573 E0.05112
G1 X80.619 Y17.887 E1.77432
G1 X79.857 Y17.887 E0.05112
G1 X98.543 Y36.573 E1.77432
G1 X97.782 Y36.573 E0.05112
G1 X79.096 Y17.887 E1.77432
G1 X78.335 Y17.887 E0.05112
G1 X97.020 Y36.573 E1.77432
G1 X96.259 Y36.573 E0.05112
G1 X77.573 Y17.887 E1.77432
G1 X76.812 Y17.887 E0.05112
G1 X95.498 Y36.573 E1.77432
G1 X94.736 Y36.573 E0.05112
G1 X76.197 Y18.034 E1.76041
G1 X76.197 Y18.795 E0.05112
G1 X93.975 Y36.573 E1.68811
G1 X93.214 Y36.573 E0.05112
G1 X76.197 Y19.556 E1.61582
G1 X76.197 Y20.318 E0.05112
G1 X92.452 Y36.573 E1.54353
G1 X91.691 Y36.573 E0.05112
G1 X76.197 Y21.079 E1.47123
G1 X76.197 Y21.840 E0.05112
G1 X90.930 Y36.573 E1.39894
G1 X90.168 Y36.573 E0.05112
G1 X76.197 Y22.602 E1.32665
G1 X76.197 Y23.363 E0.05112
G1 X89.407 Y36.573 E1.25435
G1 X88.646 Y36.573 E0.05112
G1 X76.197 Y24.124 E1.18206
G1 X76.197 Y24.886 E0.05112
G1 X87.884 Y36.573 E1.10977
G1 X87.123 Y36.573 E0.05112
G1 X76.197 Y25.647 E1.03747
G1 X76.197 Y26.408 E0.05112
G1 X86.362 Y36.573 E0.96518
G1 X85.600 Y36.573 E0.05112
G1 X76.197 Y27.170 E0.89289
G1 X76.197 Y27.931 E0.05112
G1 X84.839 Y36.573 E0.82059
G1 X84.078 Y36.573 E0.05112
G1 X76.197 Y28.692 E0.74830
G1 X76.197 Y29.454 E0.05112
G1 X83.316 Y36.573 E0.67601
G1 X82.555 Y36.573 E0.05112
G1 X76.197 Y30.215 E0.60371
G1 X76.197 Y30.976 E0.05112
G1 X81.794 Y36.573 E0.53142
G1 X81.032 Y36.573 E0.05112
G1 X76.197 Y31.738 E0.45913
G1 X76.197 Y32.499 E0.05112
G1 X80.271 Y36.573 E0.38683
G1 X79.510 Y36.573 E0.05112
G1 X76.197 Y33.260 E0.31454
G1 X76.197 Y34.022 E0.05112
G1 X78.748 Y36.573 E0.24225
G1 X77.987 Y36.573 E0.05112
G1 X76.197 Y34.783 E0.16996
G1 X76.197 Y35.544 E0.05112
G1 X77.226 Y36.573 E0.09766
G1 X76.464 Y36.573 E0.05112
G1 X76.197 Y36.306 E0.02537
G1 E-1.00000 F1800.00000
G1 Z0.300 F4200.000
G4 P29
G1 X74.361 Y36.494 F4200.000
G1 E1.00000 F1800.00000
G4 P23
G1 X74.532 Y36.152 E0.02553 F1080.000
G4 P28
G1 X74.250 Y34.323 E0.12361
G1 X74.532 Y33.761 E0.04200
G4 P15
G1 X74.250 Y31.933 E0.12361
G1 X74.532 Y31.370 E0.04200
G4 P15
G1 X74.250 Y29.542 E0.12361
G1 X74.532 Y28.980 E0.04200
G4 P15
G1 X74.250 Y27.151 E0.12361
G1 X74.532 Y26.589 E0.04200
G1 E-1.00000 F1800.00000
G1 X74.532 Y17.026 F4200.000
G1 E1.00000 F1800.00000
G1 X73.648 Y18.789 E0.13180 F1080.000
G1 X73.648 Y16.399 E0.15972
G1 X74.216 Y15.266 E0.08462
G1 X74.899 Y16.294 F4200.000
G4 P32
G1 X75.414 Y15.266 E0.07677 F1080.000
G1 X76.612 Y15.266 E0.08005
G1 X76.097 Y16.294 E0.07677
G1 X77.295 Y16.294 E0.08005
G1 X77.810 Y15.266 E0.07677
G1 X79.009 Y15.266 E0.08005
G1 X78.494 Y16.294 E0.07677
G1 X79.692 Y16.294 E0.08005
G1 X80.207 Y15.266 E0.07677
G1 X81.405 Y15.266 E0.08005
G1 X80.890 Y16.294 E0.07677
G1 X82.088 Y16.294 E0.08005
G1 X82.603 Y15.266 E0.07677
G1 X83.802 Y15.266 E0.08005
G1 X83.287 Y16.294 E0.07677
G1 X84.485 Y16.294 E0.08005
G1 X85.000 Y15.266 E0.07677
G1 X86.198 Y15.266 E0.08005
G1 X85.683 Y16.294 E0.07677
G1 X86.881 Y16.294 E0.08005
G1 X87.396 Y15.266 E0.07677
G1 X88.595 Y15.266 E0.08005
G1 X88.080 Y16.294 E0.07677
G1 X89.278 Y16.294 E0.08005
G1 X89.793 Y15.266 E0.07677
G1 X90.991 Y15.266 E0.08005
G1 X90.476 Y16.294 E0.07677
G1 X91.675 Y16.294 E0.08005
G1 X92.189 Y15.266 E0.07677
G1 X93.388 Y15.266 E0.08005
G1 X92.873 Y16.294 E0.07677
G1 X94.071 Y16.294 E0.08005
G1 X94.586 Y15.266 E0.07677
G1 X95.784 Y15.266 E0.08005
G1 X95.269 Y16.294 E0.07677
G1 X96.468 Y16.294 E0.08005
G1 X96.982 Y15.266 E0.07677
G1 X98.181 Y15.266 E0.08005
G1 X97.666 Y16.294 E0.07677
G1 X98.864 Y16.294 E0.08005
G1 X99.379 Y15.266 E0.07677
G1 X100.577 Y15.266 E0.08005
G1 X100.062 Y16.294 E0.07677
G1 X101.261 Y16.294 E0.08005
G1 X101.775 Y15.266 E0.07677
G1 X102.974 Y15.266 E0.08005
G1 X102.459 Y16.294 E0.07677
G1 X103.657 Y16.294 E0.08005
G1 X104.172 Y15.266 E0.07677
G1 X105.370 Y15.266 E0.08005
G1 X104.855 Y16.294 E0.07677
G1 X106.054 Y16.294 E0.08005
G1 X106.569 Y15.266 E0.07677
G1 X107.767 Y15.266 E0.08005
G1 X107.252 Y16.294 E0.07677
G1 X108.450 Y16.294 E0.08005
G1 X108.965 Y15.266 E0.07677
G1 X110.163 Y15.266 E0.08005
G1 X109.648 Y16.294 E0.07677
G1 X110.847 Y16.294 E0.08005
G1 X111.362 Y15.266 E0.07677
G1 X112.560 Y15.266 E0.08005
G1 X112.045 Y16.294 E0.07677
G1 X113.243 Y16.294 E0.08005
G1 X113.758 Y15.266 E0.07677
G1 X114.956 Y15.266 E0.08005
G1 X114.441 Y16.294 E0.07677
G1 X115.640 Y16.294 E0.08005
G1 X116.155 Y15.266 E0.07677
G1 X117.353 Y15.266 E0.08005
G1 X116.838 Y16.294 E0.07677
G1 X118.036 Y16.294 E0.08005
G1 X118.551 Y15.266 E0.07677
G1 X119.749 Y15.266 E0.08005
G1 X119.234 Y16.294 E0.07677
G1 X120.433 Y16.294 E0.08005
G1 X120.948 Y15.266 E0.07677
G1 X122.146 Y15.266 E0.08005
G1 X121.631 Y16.294 E0.07677
G1 X122.829 Y16.294 E0.08005
G1 X123.344 Y15.266 E0.07677
G1 X124.542 Y15.266 E0.08005
G1 X124.028 Y16.294 E0.07677
G1 X125.226 Y16.294 E0.08005
G1 X125.741 Y15.266 E0.07677
G1 X126.939 Y15.266 E0.08005
G1 X126.424 Y16.294 E0.07677
G1 X127.622 Y16.294 E0.08005
G1 X128.137 Y15.266 E0.07677
G1 X129.335 Y15.266 E0.08005
G1 X128.821 Y16.294 E0.07677
G1 X130.019 Y16.294 E0.08005
G1 X130.534 Y15.266 E0.07677
G1 X131.732 Y15.266 E0.08005
G1 X131.217 Y16.294 E0.07677
G1 X132.415 Y16.294 E0.08005
G1 X132.930 Y15.266 E0.07677
G1 X134.128 Y15.266 E0.08005
G1 X133.614 Y16.294 E0.07677
G1 X134.812 Y16.294 E0.08005
G1 X135.327 Y15.266 E0.07677
G1 X136.525 Y15.266 E0.08005
G1 X136.010 Y16.294 E0.07677
G1 X137.208 Y16.294 E0.08005
G1 X137.723 Y15.266 E0.07677
G1 X138.921 Y15.266 E0.08005
G1 X138.407 Y16.294 E0.07677
G1 X139.605 Y16.294 E0.08005
G1 X140.120 Y15.266 E0.07677
G1 X141.318 Y15.266 E0.08005
G1 X140.803 Y16.294 E0.07677
G1 X142.001 Y16.294 E0.08005
G1 X142.516 Y15.266 E0.07677
G1 X143.715 Y15.266 E0.08005
G1 X143.200 Y16.294 E0.07677
G1 X144.398 Y16.294 E0.08005
G1 X144.913 Y15.266 E0.07677
G1 X146.111 Y15.266 E0.08005
G1 X145.596 Y16.294 E0.07677
G1 X146.794 Y16.294 E0.08005
G1 X147.309 Y15.266 E0.07677
G1 X148.508 Y15.266 E0.08005
G1 X147.993 Y16.294 E0.07677
G1 X149.191 Y16.294 E0.08005
G1 X149.706 Y15.266 E0.07677
G1 X150.904 Y15.266 E0.08005
G1 X150.289 Y16.494 E0.09171
G1 X151.432 Y16.604 E0.07672
G1 X150.548 Y18.368 E0.13180
G1 E-1.00000 F1800.00000
G1 X150.889 Y24.859 F4200.000
G1 E1.00000 F1800.00000
G1 X150.548 Y25.540 E0.05085 F1080.000
G4 P7
G1 X151.432 Y26.167 E0.07240
G1 X150.548 Y27.931 E0.13180
G1 X151.432 Y28.558 E0.07240
G1 X150.909 Y29.601 E0.07794
G1 E-1.00000 F1800.00000
G1 Z0.600 F4200.000
G1 X146.088 Y18.307 F4200.000
G1 E1.00000 F1800.00000
G1 X149.463 Y18.307 E0.17633 F1800.000
G1 X149.463 Y37.153 E0.98458
G1 X75.617 Y37.153 E3.85805
G1 X75.617 Y17.307 E1.03683
G1 X146.088 Y17.307 E3.68172
G1 X146.088 Y18.247 E0.04911
G4 P18
G1 X146.465 Y17.930 F4200.000
G1 X149.840 Y17.930 E0.14128 F1800.000
G1 X149.840 Y37.530 E0.82046
G1 X75.240 Y37.530 E3.12278
G1 X75.240 Y16.930 E0.86232
G1 X146.465 Y16.930 E2.98150
G1 X146.465 Y17.870 E0.03935
G1 X146.465 Y18.330 F4200.000
G1 E-1.00000 F1800.00000
G1 X148.998 Y36.906 F4200.000
G1 E1.00000 F1800.00000
G1 X149.216 Y36.688 E0.01616 F3600.000
G1 X149.216 Y36.093 E0.03125
G4 P34
G1 X148.403 Y36.906 E0.06036
G1 X147.807 Y36.906 E0.03125
G4 P20
G1 X149.216 Y35.497 E0.10456
G1 X149.216 Y34.902 E0.03125
G4 P6
G1 X147.212 Y36.906 E0.14875
G1 X146.617 Y36.906 E0.03125
G1 X149.216 Y34.307 E0.19295
G1 X149.216 Y33.712 E0.03125
G1 X146.022 Y36.906 E0.23714
G1 X145.426 Y36.906 E0.03125
G1 X149.216 Y33.116 E0.28134
G1 X149.216 Y32.521 E0.03125
G1 X144.831 Y36.906 E0.32554
G1 X144.236 Y36.906 E0.03125
G1 X149.216 Y31.926 E0.36973
G1 X149.216 Y31.330 E0.03125
G1 X143.640 Y36.906 E0.41393
G1 X143.045 Y36.906 E0.03125
G1 X149.216 Y30.735 E0.45813
G1 X149.216 Y30.140 E0.03125
G1 X142.450 Y36.906 E0.50232
G1 X141.855 Y36.906 E0.03125
G1 X149.216 Y29.545 E0.54652
G1 X149.216 Y28.949 E0.03125
G1 X141.259 Y36.906 E0.59071
G1 X140.664 Y36.906 E0.03125
G1 X149.216 Y28.354 E0.63491
G1 X149.216 Y27.759 E0.03125
G1 X140.069 Y36.906 E0.67911
G1 X139.474 Y36.906 E0.03125
G1 X149.216 Y27.164 E0.72330
G1 X149.216 Y26.568 E0.03125
G1 X138.878 Y36.906 E0.76750
G1 X138.283 Y36.906 E0.03125
G1 X149.216 Y25.973 E0.81169
G1 X149.216 Y25.378 E0.03125
G1 X137.688 Y36.906 E0.85589
G1 X137.092 Y36.906 E0.03125
G1 X149.216 Y24.782 E0.90009
G1 X149.216 Y24.187 E0.03125
G1 X136.497 Y36.906 E0.94428
G1 X135.902 Y36.906 E0.03125
G1 X149.216 Y23.592 E0.98848
G1 X149.216 Y22.997 E0.03125
G1 X135.307 Y36.906 E1.03267
G1 X134.711 Y36.906 E0.03125
G1 X149.216 Y22.401 E1.07687
G1 X149.216 Y21.806 E0.03125
G1 X134.116 Y36.906 E1.12107
G1 X133.521 Y36.906 E0.03125
G1 X149.216 Y21.211 E1.16526
G1 X149.216 Y20.616 E0.03125
G1 X132.926 Y36.906 E1.20946
G1 X132.330 Y36.906 E0.03125
G1 X149.216 Y20.020 E1.25365
G1 X149.216 Y19.425 E0.03125
G1 X131.735 Y36.906 E1.29785
G1 X131.140 Y36.906 E0.03125
G1 X149.216 Y18.830 E1.34205
G1 X148.896 Y18.554 E0.02216
G1 X130.544 Y36.906 E1.36249
G1 X129.949 Y36.906 E0.03125
